svgs/camerax_info.svg

<svg xmlns="http://www.w3.org/2000/svg" viewBox="0 0 24 24"><path d="M9 3 7.17 5H4a2 2 0 0 0-2 2v12a2 2 0 0 0 2 2h16a2 2 0 0 0 2-2V7a2 2 0 0 0-2-2h-3.17L15 3zm3 15a5.004 5.004 0 0 1-3.536-1.464 5.004 5.004 0 0 1 0-7.072 5.004 5.004 0 0 1 7.072 0 5.004 5.004 0 0 1 0 7.072A5.004 5.004 0 0 1 12 18m0-1 1.25-2.75L16 13l-2.75-1.25L12 9l-1.25 2.75L8 13l2.75 1.25"/></svg>

<svg width="24" height="24" viewBox="0 0 24 24" fill="none" xmlns="http://www.w3.org/2000/svg">
<path d="M9 3L7.17 5H4C3.47 5 2.961 5.211 2.586 5.586C2.211 5.961 2 6.47 2 7V19C2 19.53 2.211 20.039 2.586 20.414C2.961 20.789 3.47 21 4 21H20C20.53 21 21.039 20.789 21.414 20.414C21.789 20.039 22 19.53 22 19V7C22 6.47 21.789 5.961 21.414 5.586C21.039 5.211 20.53 5 20 5H16.83L15 3H9ZM12 18C10.674 18 9.402 17.473 8.464 16.536C7.527 15.598 7 14.326 7 13C7 11.674 7.527 10.402 8.464 9.464C9.402 8.527 10.674 8 12 8C13.326 8 14.598 8.527 15.536 9.464C16.473 10.402 17 11.674 17 13C17 14.326 16.473 15.598 15.536 16.536C14.598 17.473 13.326 18 12 18ZM12 17L13.25 14.25L16 13L13.25 11.75L12 9L10.75 11.75L8 13L10.75 14.25" fill="white"/>
</svg>
